X: 252
T: Lady Wallace's Reel
R: reel
M: C
L: 1/8
Z: 2012 John Chambers <jc:trillian.mit.edu>
B: J. Anderson "Budget of Strathspeys, Reels and Country Dances" (Early 1800s) p.25 #2
F: http://imslp.org/wiki/Anderson%27s_Budget_of_Strathspeys,_Reels_and_Country_Dances_(Various)
N: The first part should probably be repeated.
K: Am
e |\
(c/B/A) (EA) FAEe | dgdc BGBd | (c/B/A) EA FAEe | eE (e/d/)(c/B/) cAA |]
a |\
(c'/b/a) (Ae) aec'a | bgdc BG bg | a^gae ceac' | bge^g a/a/a (ac') |
(c'a).e.c' (bg).d.b | gcac BG gd | (ec).B.A (fd).c.B | eE (e/d/c/B/) cAA |]

%%sep 2 1 500
%%sep 1 1 500

